X: 4
T: Time Will End
M: 4/4
C: Jeremiah McLane
F: http://www.amazoncreek.com/AC.ABC
K: G
(3(DEF) |\
"G"G2gf "C"e3d | "Em"edBd "D"A2GA | "Em"B2AG "C"EG"G"DE | "Am"GA"C"cB "C/D"A2"D"GF | 
"G"G2gf "C"e3d | "Em"edBd "D"A2GA | "G"B2AG "C"EG"G"DE | "C"GA"D"BA "G"G3 :| 
|: F |\
"Em"E2ED "C"E2ED | "Dsus"EFGA "G"BA"D/F#"GF | "Em"E2ED "C"EFGA | "Dsus"(A4 A)BAG | 
"Em"E2ED "C"E2ED | "Dsus"EFGA "G"BG gf | "C"(3(efg) "Em"dB "D"AGBA | "G"G3A BA"D/F#"GF || 
"Em"E2ED "C"E2ED | "Dsus"EFGA "G"BAGF | "Em"E2ED "C"EFGA | "Dsus"(A4 A)BAG | 
"Em"E2ED "G"GABG | "C"edcB "D"AGFD | "Em"EFGA "C"BAGF | "Dsus"(G4 G) |] 
